X:1
T:Title
%%score { 1 | ( 2 3 ) }
L:1/8
M:4/4
K:D
V:1 treble nm="Grand Piano"
V:2 bass 
V:3 bass 
V:1
 z4 z2[Q:1/4=90] [DF][EG] | [FA][FA] [FA]2 [FA]2 [GB][FA] | [FA][EG][EG][^DF] [EG]2 [CE]F | %3
 [EG][EG][EG][EG] [EG]B[FA][EG] | [DF]A[EG][DF] [CE]2 [DF][EG] | [FA]A[FA][FA] [FA][FA][FA][FA] | %6
 [GB][GB][GB][Ac] [Bd]2 [Ac][GB] | [GB][FA][DF][FA] [FA][EG][DF][CE] |[M:7/8] D[DF] [CE]2 D3 | %9
[M:1/4] A2 |[M:4/4] [Fd]2 [Fd][Ac] [GB]2 [FA]2 | [GB][GB][FA][DF] [FA]2 [FA]2 | %12
 [Fd]2 [Fd][Ac] [GB]2 [Bd][GB] | [FA]2 [FA][DF] [CE]2 D[DF] | [FA]2 [FA]>[GB] [FA][FA][DF][FA] | %15
[M:9/8] [GB]>[FA][GB] [Ac] [Bd]2- [Bd][Ac]B |[M:4/4] [FA]2 [Fd]>[Fd] edcB |[M:3/4] A2 B>c [Fd]2 |] %18
V:2
 z4 z2 D,D, | D,D, D,2 D,2 D,D, | A,,A,,A,,A,, A,,2 z ^D | A,,A,,A,,A,, z GA,,A,, | %4
 z FC,D, A,G,F,E, | z FD,D, D,D,D,D, | G,G,G,G, G,2 G,G, | D,D,D,D, A,,A,,A,,A,, | %8
[M:7/8] D,D, A,,2 D,3 |[M:1/4] A,2 |[M:4/4] D,2 D,F, G,2 D,2 | D,D,D,D, D,2 D,2 | %12
 D,2 D,F, G,2 G,G, | D,2 D,F, A,2 D,D, | D,2 D,>D, D,D,D,D, |[M:9/8] G,>G,G, G, G,2- G, z G | %16
[M:4/4] D,2 D,>D,[K:treble] [G,G][G,G][G,G][G,G] |[M:3/4] [A,F]2 [A,G]>[K:bass][A,E] D,2 |] %18
V:3
 x8 | x8 | z4 z2 A,,2 | z4 A,,2 z2 | D,2 z2 z4 | D,2 z2 z4 | x8 | x8 |[M:7/8] x7 |[M:1/4] x2 | %10
[M:4/4] x8 | x8 | x8 | x8 | x8 |[M:9/8] z3 z3 z G,2 |[M:4/4] x4[K:treble] x4 | %17
[M:3/4] x7/2[K:bass] x5/2 |] %18

